wifi-strength-lock-outline.svg

<svg fill="currentColor" viewBox="0 0 24 24"><path d="M23.65 7h-.01l-2.73 3.39c-.59-.25-1.23-.39-1.91-.39-.13 0-.25.03-.37.04l2.08-2.59A16.8 16.8 0 0 0 12 5c-3.09 0-6.1.85-8.73 2.44L12 18.3l1-1.3v3.25l-1 1.25C8.13 16.66 4.24 11.83.355 7h.02A18.92 18.92 0 0 1 12 3c4.22 0 8.32 1.41 11.65 4M23 17.3v3.5c0 .6-.6 1.2-1.3 1.2h-5.5c-.6 0-1.2-.6-1.2-1.3v-3.5c0-.6.6-1.2 1.2-1.2v-1.5c0-1.4 1.4-2.5 2.8-2.5s2.8 1.1 2.8 2.5V16c.6 0 1.2.6 1.2 1.3m-2.5-2.8c0-.8-.7-1.3-1.5-1.3s-1.5.5-1.5 1.3V16h3z"/></svg>

<svg  viewBox="0 0 24 24" fill="currentColor"><path  d="M23.65 7H23.64L20.91 10.39C20.32 10.14 19.68 10 19 10C18.87 10 18.75 10.03 18.63 10.04L20.71 7.45C18.09 5.86 15.07 5 12 5C8.91 5 5.9 5.85 3.27 7.44L12 18.3L13 17C13 17.08 13 17.14 13 17.2V20.25L12 21.5C8.13 16.66 4.24 11.83 .355 7H.375C3.7 4.41 7.79 3 12 3C16.22 3 20.32 4.41 23.65 7M23 17.3V20.8C23 21.4 22.4 22 21.7 22H16.2C15.6 22 15 21.4 15 20.7V17.2C15 16.6 15.6 16 16.2 16V14.5C16.2 13.1 17.6 12 19 12S21.8 13.1 21.8 14.5V16C22.4 16 23 16.6 23 17.3M20.5 14.5C20.5 13.7 19.8 13.2 19 13.2S17.5 13.7 17.5 14.5V16H20.5V14.5Z"/></svg>
